X: 25715
T: Mary Cotter
R: jig
M: 6/8
K: Amajor
(3efg|:aec A2 F|GAB d2B|~c3 Ace|dBB B (3efg|
aec A2 F|GAB d2 B|c3 BAB|1 BAG A (3efg:|2 BAG Ace||
f3 fec|BAB c2 B|ABc eae|fec e2 e|
f3 fec|BAB c2 B|ABc BAB|1 BAG Ace:|2 BAG A3||

